X: 1732
T: Seni, Sesini, Gözlerinin Rengini...
C: Sadi Hoşses
O: Turkey
F: http://compmusic.upf.edu/node/140
N: huzzam--sarki--duyek--seni_sesini--sadi_hosses
N: makam= huzzam
N: form= sarki
N: usul= duyek = 8/4
M: 8/4
L: 1/16
K: C _1/4B _3/4e ^3/4f 
Q: 1/4=126
%%MIDI tuningsystem comma53
c2 d4 z2 .d2 .B2 .d4  | e2 {f}ed c2 z2 e3d c4  | \
w:  Se ni  SAZ  |  se *  si *  ni  SAZ  | 
z2 d4 e2 f4 e2 d2  | z2 ed c2 cB B8  | 
w:  göz le ri nin   |  ren *  *  gi *  ni   | 
z4 c2 d2 c2 B2 f2 {g}ed  | d8 e2 {f}ed e2 d2  | \
w:  u nu ta *  bil  |  sem    | 
z4 g2 g2 f2 e2 fe ed  | 
w:  u nu ta *  bil  | 
d16  | z2 _b2 a2 g2 f2 e2 d2 c2  | B2 f2 e2 d2 dc cB B4  | \
w:  sem    |  SAZ  |   | 
c2 d4 z2 .d2 .B2 .d4  | 
w:  Se ni  SAZ  | 
e2 {f}ed c2 z2 e3d c4  | z2 d4 e2 f4 e2 d2  | \
w:  se *  si *  ni  SAZ  |  göz le ri nin   | 
z2 ed c2 cB B8  | 
w:  ren *  *  gi *  ni   | 
z4 c2 d2 c2 B2 f2 {g}ed  | d8 e2 {f}ed e2 d2  | \
w:  u nu ta *  bil  |  sem    | 
z4 g2 g2 f2 e2 fe ed  | 
w:  u nu ta *  bil  | 
d16  | z2 _b2 a2 g2 f2 e2 d2 c2  | B2 f4 ^e2 fg fe f4  | \
w:  sem    |  SAZ  |   | 
z4 f2 g2 g4 gf e2  | 
w:  Şu  ya ra lı   | 
z2 _ba g2 gf f8  | z4 a2 g2 f2 e2 fe ed  | \
w:  gön *  *  lü *  mü   |  a *  ta *  bil  | 
e6 d2 fe ed e2 d2  | 
w:  sem    | 
z2 d2 e2 f2 g2 fe d{e}d c2  | B4 f2 ed d2 c2 dc cB  | B16  | 
w:  ah   |  *  a vu *  ta *  bil  |  sem    | 
z2 _b2 a2 g2 f2 e2 d2 c2  | B2 f4 ^e2 fg fe f4  | \
w:  SAZ  |   | 
z4 f2 g2 g4 gf e2  | 
w:  Şu  ya ra lı   | 
z2 _ba g2 gf f8  | z4 a2 g2 f2 e2 fe ed  | \
w:  gön *  *  lü *  mü   |  a *  ta *  bil  | 
e6 d2 fe ed e2 d2  | 
w:  sem    | 
z2 d2 e2 f2 g2 fe d{e}d c2  | B4 f2 ed d2 c2 dc cB  | B16  | 
w:  ah   |  *  a vu *  ta *  bil  |  sem    | 
z2 c'2 b2 ^a2 g2 f2 e2 dc  | B2 c'2 b2 ^a2 gf ga b4  | \
w:  SAZ  |   | 
g2 b4 z2 b2 g2 b4  | 
w:  Ge çen  SAZ  | 
b2 c'4 b2 b3^a g2 a2  | b16  | z4 b2 c'2 b2 ^a2 g2 {a}gf  | f16  | \
w:  o  tat lı  dem *  le  |  ri   |  u nu ta *  bil  |  sem    | 
z4 b2 d'2 c'2 b2 ^a2 {d'}c'b  | 
w:  u nu ta *  bil  | 
b16  | g2 b4 z2 b2 g2 b4  | b2 c'4 b2 b3^a g2 a2  | b16  | \
w:  sem    |  Ge çen  SAZ  |  o  tat lı  dem *  le  |  ri   | 
z4 b2 c'2 b2 ^a2 g2 {a}gf  | 
w:  u nu ta *  bil  | 
f16  | z4 a2 _b2 a2 g2 fe ed  | d16  | z2 _b2 a2 g2 f2 e2 d2 c2  | \
w:  sem    |  u nu ta *  bil  |  sem    |  SAZ  | 
B2 f4 ^e2 fg fe f4  | 
w:   | 
z4 f2 g2 g4 gf e2  | z2 _ba g2 gf f8  | \
w:  Şu  ya ra lı   |  gön *  *  lü *  mü   | 
z4 a2 g2 f2 e2 fe ed  | 
w:  a *  ta *  bil  | 
e6 d2 fe ed e2 d2  | z2 d2 e2 f2 g2 fe d{e}d c2  | \
w:  sem    |  ah   | 
B4 f2 ed d2 c2 dc cB  | 
w:  *  a vu *  ta *  bil  | 
B16  | |


